images/logo.svg

<svg height="48" viewBox="0 0 177 48" width="177" xmlns="http://www.w3.org/2000/svg"><g fill="none" fill-rule="evenodd"><path d="m0 0h177v48h-177z" fill="#fff" fill-opacity=".01"/><path d="m56.17 33.312c.9013333 0 1.7766667-.1646667 2.626-.494s1.599-.8016667 2.249-1.417 1.1743333-1.3606667 1.573-2.236.598-1.8503333.598-2.925-.1993333-2.0496667-.598-2.925-.923-1.6206667-1.573-2.236-1.3996667-1.0876667-2.249-1.417-1.7246667-.494-2.626-.494-1.7766667.1646667-2.626.494-1.599.8016667-2.249 1.417-1.1743333 1.3606667-1.573 2.236-.598 1.8503333-.598 2.925.1993333 2.0496667.598 2.925.923 1.6206667 1.573 2.236 1.3996667 1.0876667 2.249 1.417 1.7246667.494 2.626.494zm0-3.38c-.4853333 0-.936-.0953333-1.352-.286s-.7756667-.455-1.079-.793-.5416667-.728-.715-1.17-.26-.923-.26-1.443.0866667-1.001.26-1.443.4116667-.832.715-1.17.663-.6023333 1.079-.793.8666667-.286 1.352-.286.936.0953333 1.352.286.7756667.455 1.079.793.5416667.728.715 1.17.26.923.26 1.443-.0866667 1.001-.26 1.443-.4116667.832-.715 1.17-.663.6023333-1.079.793-.8666667.286-1.352.286zm14.144 3.328c.2253333 0 .481-.0173333.767-.052s.559-.0866667.819-.156v-3.042c-.1213333.0173333-.234.0303333-.338.039s-.208.013-.312.013c-.468 0-.8406667-.104-1.118-.312s-.416-.572-.416-1.092v-13.858h-3.64v14.118c0 .884.1343333 1.6076667.403 2.171s.611 1.0053333 1.027 1.326.8753333.5416667 1.378.663.9793333.182 1.43.182zm5.564-15.808c.5893333 0 1.1006667-.2166667 1.534-.65s.65-.9446667.65-1.534-.2166667-1.1006667-.65-1.534-.9446667-.65-1.534-.65-1.1006667.2166667-1.534.65-.65.9446667-.65 1.534.2166667 1.1006667.65 1.534.9446667.65 1.534.65zm1.82 15.548v-13.442h-3.64v13.442zm9.698.312c1.248 0 2.3616667-.234 3.341-.702s1.833-1.144 2.561-2.028l-2.158-2.288c-.4853333.5026667-.988.9013333-1.508 1.196s-1.1786667.442-1.976.442c-.5546667 0-1.053-.0953333-1.495-.286s-.819-.455-1.131-.793-.5546667-.728-.728-1.17-.26-.923-.26-1.443.0823333-1.001.247-1.443.3986667-.832.702-1.17.6586667-.6023333 1.066-.793.8536667-.286 1.339-.286c.624 0 1.209.104 1.755.312s1.1223333.5546667 1.729 1.04l1.742-2.808c-.832-.7453333-1.664-1.2523333-2.496-1.521s-1.742-.403-2.73-.403c-.9013333 0-1.7766667.1646667-2.626.494s-1.6033333.8016667-2.262 1.417-1.1873333 1.3606667-1.586 2.236-.598 1.8503333-.598 2.925.1993333 2.0496667.598 2.925.9273333 1.6206667 1.586 2.236 1.4126667 1.0876667 2.262 1.417 1.7246667.494 2.626.494zm14.352 0c.901333 0 1.776667-.1646667 2.626-.494s1.599-.8016667 2.249-1.417 1.174333-1.3606667 1.573-2.236.598-1.8503333.598-2.925-.199333-2.0496667-.598-2.925-.923-1.6206667-1.573-2.236-1.399667-1.0876667-2.249-1.417-1.724667-.494-2.626-.494-1.7766667.1646667-2.626.494-1.599.8016667-2.249 1.417-1.1743333 1.3606667-1.573 2.236-.598 1.8503333-.598 2.925.1993333 2.0496667.598 2.925.923 1.6206667 1.573 2.236 1.3996667 1.0876667 2.249 1.417 1.724667.494 2.626.494zm0-3.38c-.485333 0-.936-.0953333-1.352-.286s-.7756667-.455-1.079-.793-.5416667-.728-.715-1.17-.26-.923-.26-1.443.0866667-1.001.26-1.443.4116667-.832.715-1.17.663-.6023333 1.079-.793.866667-.286 1.352-.286.936.0953333 1.352.286.775667.455 1.079.793.541667.728.715 1.17.26.923.26 1.443-.086667 1.001-.26 1.443-.411667.832-.715 1.17-.663.6023333-1.079.793-.866667.286-1.352.286zm13.442 3.068v-8.32c.398667-.6066667.897-1.1223333 1.495-1.547s1.269667-.637 2.015-.637c.884 0 1.564333.273 2.041.819s.715 1.313.715 2.301v7.384h3.64v-7.566c0-2.0453333-.515667-3.601-1.547-4.667s-2.405-1.599-4.121-1.599c-.901333 0-1.737667.1603333-2.509.481s-1.460333.7843333-2.067 1.391v-1.482h-3.302v13.442zm18.408.286c.762667 0 1.473333-.0996667 2.132-.299s1.230667-.494 1.716-.884.866667-.871 1.144-1.443.416-1.222.416-1.95c0-.5546667-.104-1.0443333-.312-1.469s-.498333-.7973333-.871-1.118-.827667-.598-1.365-.832-1.135333-.429-1.794-.585c-.398667-.104-.784333-.195-1.157-.273s-.702-.169-.988-.273-.511333-.234-.676-.39-.247-.3553333-.247-.598c0-.104.026-.221.078-.351s.151667-.2513333.299-.364.342333-.208.585-.286.554667-.117.936-.117c.658667 0 1.326.117 2.002.351s1.326.585 1.95 1.053l1.326-2.704c-.381333-.2426667-.767-.4593333-1.157-.65s-.806-.3553333-1.248-.494-.918667-.247-1.43-.325-1.087667-.117-1.729-.117c-.849333 0-1.599.1126667-2.249.338s-1.196.5286667-1.638.91-.775667.832-1.001 1.352-.338 1.0746667-.338 1.664c0 .78.164667 1.417.494 1.911s.732333.8883333 1.209 1.183.975.5113333 1.495.65.970667.2513333 1.352.338c.364.0866667.715.1733333 1.053.26s.632667.1906667.884.312.455.2643333.611.429.234.3596667.234.585c0 .3466667-.147333.6413333-.442.884s-.745333.364-1.352.364c-.658667 0-1.408333-.104-2.249-.312s-1.659667-.5286667-2.457-.962l-.988 2.912c.918667.4506667 1.859.78 2.821.988s1.945667.312 2.951.312z" fill="#202327" fill-rule="nonzero"/><rect fill="#ff3c5a" height="14" rx="3" width="30" x="144" y="19"/><text fill="#fff" font-family="BlueSkyStandard-Bold, Blue Sky Standard" font-size="9" font-weight="bold"><tspan x="146.742" y="29">v1.0.2</tspan></text><g fill-rule="nonzero" transform="translate(8 8)"><circle cx="16" cy="16" fill="#202327" r="16"/><g fill="#fff"><path d="m8.8 25c-.45 0-.8-3.45-.8-3.45 0-.3.35-.5.8-.5.45 0 .8.25.8.5-.05 0-.4 3.45-.8 3.45z"/><path d="m23.95 11.75c1.1-.6 2.05-2.15 1.9-2.9 0-.1-.1-.2-.2-.25-.15-.05-.3 0-.4.1-1.2.95-2.6 1.6-4.1 1.95-1.55.45-5.7.9-6.45 1.05-2.05.4-3.7 1.8-4.45 3.75-.45 1.25-.35 2.75-.35 4-.05.9 0 1.8.1 2.7v.05.05.05l.05.05c.15.1.3.1.45 0 .05-.05.1-.05.1-.1.25-.3.4-.9.65-1.35.6-1 1.65-1 2.9-.5.2.1.45.15.65.2h.05c.45.15.95.25 1.4.25 1.65 0 3.15-1.05 3.75-2.6.25-.55.8-2.35 1-2.8.05-.1.1-.15.2-.2.35-.1.6-.2.7-.2 1.3-.5 2.4-1.45 3.05-2.65.25-.5.45-1.05.55-1.65 0-.05-.05-.1-.1-.05-.5.5-1.1.85-1.75 1 .25.1.25.1.3.05zm-4.7 6.05c-.55 1.55-2.25 2.35-3.8 1.85-1.2-.4-2-1.45-2-2.7 0-.05.05-.1.05-.1.35-.15.7-.25 1.05-.35.05 0 .1 0 .1.05-.1 1 .55 1.85 1.55 2h.1c.05 0 .05 0 .1-.05s0-.05-.05-.1c-.4-.35-.4-.95-.05-1.3s.95-.4 1.3-.05c.15.15.25.35.3.6 0 .05 0 .05.05.05s.05 0 .05-.05c.05-.1.1-.2.15-.3.15-.45.15-.95-.1-1.4 0-.05 0-.1.05-.1.4-.05.75-.1 1.05-.2.05 0 .1 0 .1.05.25.75.25 1.45 0 2.1zm7.75-4.25c0 .2-.15.3-.35.3s-.3-.15-.3-.3c0-.2.15-.3.3-.3s.35.15.35.3z"/></g></g></g></svg>

<?xml version="1.0" encoding="UTF-8"?>
<svg width="177px" height="48px" viewBox="0 0 177 48" version="1.1" xmlns="http://www.w3.org/2000/svg" xmlns:xlink="http://www.w3.org/1999/xlink">
    <title>logo</title>
    <g id="页面-1" stroke="none" stroke-width="1" fill="none" fill-rule="evenodd">
        <g id="画板" transform="translate(-3834.000000, -579.000000)">
            <g id="logo" transform="translate(3834.000000, 579.000000)">
                <rect id="矩形" fill-opacity="0.01" fill="#FFFFFF" x="0" y="0" width="177" height="48"></rect>
                <path d="M56.17,33.312 C57.0713333,33.312 57.9466667,33.1473333 58.796,32.818 C59.6453333,32.4886667 60.395,32.0163333 61.045,31.401 C61.695,30.7856667 62.2193333,30.0403333 62.618,29.165 C63.0166667,28.2896667 63.216,27.3146667 63.216,26.24 C63.216,25.1653333 63.0166667,24.1903333 62.618,23.315 C62.2193333,22.4396667 61.695,21.6943333 61.045,21.079 C60.395,20.4636667 59.6453333,19.9913333 58.796,19.662 C57.9466667,19.3326667 57.0713333,19.168 56.17,19.168 C55.2686667,19.168 54.3933333,19.3326667 53.544,19.662 C52.6946667,19.9913333 51.945,20.4636667 51.295,21.079 C50.645,21.6943333 50.1206667,22.4396667 49.722,23.315 C49.3233333,24.1903333 49.124,25.1653333 49.124,26.24 C49.124,27.3146667 49.3233333,28.2896667 49.722,29.165 C50.1206667,30.0403333 50.645,30.7856667 51.295,31.401 C51.945,32.0163333 52.6946667,32.4886667 53.544,32.818 C54.3933333,33.1473333 55.2686667,33.312 56.17,33.312 Z M56.17,29.932 C55.6846667,29.932 55.234,29.8366667 54.818,29.646 C54.402,29.4553333 54.0423333,29.191 53.739,28.853 C53.4356667,28.515 53.1973333,28.125 53.024,27.683 C52.8506667,27.241 52.764,26.76 52.764,26.24 C52.764,25.72 52.8506667,25.239 53.024,24.797 C53.1973333,24.355 53.4356667,23.965 53.739,23.627 C54.0423333,23.289 54.402,23.0246667 54.818,22.834 C55.234,22.6433333 55.6846667,22.548 56.17,22.548 C56.6553333,22.548 57.106,22.6433333 57.522,22.834 C57.938,23.0246667 58.2976667,23.289 58.601,23.627 C58.9043333,23.965 59.1426667,24.355 59.316,24.797 C59.4893333,25.239 59.576,25.72 59.576,26.24 C59.576,26.76 59.4893333,27.241 59.316,27.683 C59.1426667,28.125 58.9043333,28.515 58.601,28.853 C58.2976667,29.191 57.938,29.4553333 57.522,29.646 C57.106,29.8366667 56.6553333,29.932 56.17,29.932 Z M70.314,33.26 C70.5393333,33.26 70.795,33.2426667 71.081,33.208 C71.367,33.1733333 71.64,33.1213333 71.9,33.052 L71.9,33.052 L71.9,30.01 C71.7786667,30.0273333 71.666,30.0403333 71.562,30.049 C71.458,30.0576667 71.354,30.062 71.25,30.062 C70.782,30.062 70.4093333,29.958 70.132,29.75 C69.8546667,29.542 69.716,29.178 69.716,28.658 L69.716,28.658 L69.716,14.8 L66.076,14.8 L66.076,28.918 C66.076,29.802 66.2103333,30.5256667 66.479,31.089 C66.7476667,31.6523333 67.09,32.0943333 67.506,32.415 C67.922,32.7356667 68.3813333,32.9566667 68.884,33.078 C69.3866667,33.1993333 69.8633333,33.26 70.314,33.26 Z M75.878,17.452 C76.4673333,17.452 76.9786667,17.2353333 77.412,16.802 C77.8453333,16.3686667 78.062,15.8573333 78.062,15.268 C78.062,14.6786667 77.8453333,14.1673333 77.412,13.734 C76.9786667,13.3006667 76.4673333,13.084 75.878,13.084 C75.2886667,13.084 74.7773333,13.3006667 74.344,13.734 C73.9106667,14.1673333 73.694,14.6786667 73.694,15.268 C73.694,15.8573333 73.9106667,16.3686667 74.344,16.802 C74.7773333,17.2353333 75.2886667,17.452 75.878,17.452 Z M77.698,33 L77.698,19.558 L74.058,19.558 L74.058,33 L77.698,33 Z M87.396,33.312 C88.644,33.312 89.7576667,33.078 90.737,32.61 C91.7163333,32.142 92.57,31.466 93.298,30.582 L93.298,30.582 L91.14,28.294 C90.6546667,28.7966667 90.152,29.1953333 89.632,29.49 C89.112,29.7846667 88.4533333,29.932 87.656,29.932 C87.1013333,29.932 86.603,29.8366667 86.161,29.646 C85.719,29.4553333 85.342,29.191 85.03,28.853 C84.718,28.515 84.4753333,28.125 84.302,27.683 C84.1286667,27.241 84.042,26.76 84.042,26.24 C84.042,25.72 84.1243333,25.239 84.289,24.797 C84.4536667,24.355 84.6876667,23.965 84.991,23.627 C85.2943333,23.289 85.6496667,23.0246667 86.057,22.834 C86.4643333,22.6433333 86.9106667,22.548 87.396,22.548 C88.02,22.548 88.605,22.652 89.151,22.86 C89.697,23.068 90.2733333,23.4146667 90.88,23.9 L90.88,23.9 L92.622,21.092 C91.79,20.3466667 90.958,19.8396667 90.126,19.571 C89.294,19.3023333 88.384,19.168 87.396,19.168 C86.4946667,19.168 85.6193333,19.3326667 84.77,19.662 C83.9206667,19.9913333 83.1666667,20.4636667 82.508,21.079 C81.8493333,21.6943333 81.3206667,22.4396667 80.922,23.315 C80.5233333,24.1903333 80.324,25.1653333 80.324,26.24 C80.324,27.3146667 80.5233333,28.2896667 80.922,29.165 C81.3206667,30.0403333 81.8493333,30.7856667 82.508,31.401 C83.1666667,32.0163333 83.9206667,32.4886667 84.77,32.818 C85.6193333,33.1473333 86.4946667,33.312 87.396,33.312 Z M101.748,33.312 C102.649333,33.312 103.524667,33.1473333 104.374,32.818 C105.223333,32.4886667 105.973,32.0163333 106.623,31.401 C107.273,30.7856667 107.797333,30.0403333 108.196,29.165 C108.594667,28.2896667 108.794,27.3146667 108.794,26.24 C108.794,25.1653333 108.594667,24.1903333 108.196,23.315 C107.797333,22.4396667 107.273,21.6943333 106.623,21.079 C105.973,20.4636667 105.223333,19.9913333 104.374,19.662 C103.524667,19.3326667 102.649333,19.168 101.748,19.168 C100.846667,19.168 99.9713333,19.3326667 99.122,19.662 C98.2726667,19.9913333 97.523,20.4636667 96.873,21.079 C96.223,21.6943333 95.6986667,22.4396667 95.3,23.315 C94.9013333,24.1903333 94.702,25.1653333 94.702,26.24 C94.702,27.3146667 94.9013333,28.2896667 95.3,29.165 C95.6986667,30.0403333 96.223,30.7856667 96.873,31.401 C97.523,32.0163333 98.2726667,32.4886667 99.122,32.818 C99.9713333,33.1473333 100.846667,33.312 101.748,33.312 Z M101.748,29.932 C101.262667,29.932 100.812,29.8366667 100.396,29.646 C99.98,29.4553333 99.6203333,29.191 99.317,28.853 C99.0136667,28.515 98.7753333,28.125 98.602,27.683 C98.4286667,27.241 98.342,26.76 98.342,26.24 C98.342,25.72 98.4286667,25.239 98.602,24.797 C98.7753333,24.355 99.0136667,23.965 99.317,23.627 C99.6203333,23.289 99.98,23.0246667 100.396,22.834 C100.812,22.6433333 101.262667,22.548 101.748,22.548 C102.233333,22.548 102.684,22.6433333 103.1,22.834 C103.516,23.0246667 103.875667,23.289 104.179,23.627 C104.482333,23.965 104.720667,24.355 104.894,24.797 C105.067333,25.239 105.154,25.72 105.154,26.24 C105.154,26.76 105.067333,27.241 104.894,27.683 C104.720667,28.125 104.482333,28.515 104.179,28.853 C103.875667,29.191 103.516,29.4553333 103.1,29.646 C102.684,29.8366667 102.233333,29.932 101.748,29.932 Z M115.19,33 L115.19,24.68 C115.588667,24.0733333 116.087,23.5576667 116.685,23.133 C117.283,22.7083333 117.954667,22.496 118.7,22.496 C119.584,22.496 120.264333,22.769 120.741,23.315 C121.217667,23.861 121.456,24.628 121.456,25.616 L121.456,25.616 L121.456,33 L125.096,33 L125.096,25.434 C125.096,23.3886667 124.580333,21.833 123.549,20.767 C122.517667,19.701 121.144,19.168 119.428,19.168 C118.526667,19.168 117.690333,19.3283333 116.919,19.649 C116.147667,19.9696667 115.458667,20.4333333 114.852,21.04 L114.852,21.04 L114.852,19.558 L111.55,19.558 L111.55,33 L115.19,33 Z M133.598,33.286 C134.360667,33.286 135.071333,33.1863333 135.73,32.987 C136.388667,32.7876667 136.960667,32.493 137.446,32.103 C137.931333,31.713 138.312667,31.232 138.59,30.66 C138.867333,30.088 139.006,29.438 139.006,28.71 C139.006,28.1553333 138.902,27.6656667 138.694,27.241 C138.486,26.8163333 138.195667,26.4436667 137.823,26.123 C137.450333,25.8023333 136.995333,25.525 136.458,25.291 C135.920667,25.057 135.322667,24.862 134.664,24.706 C134.265333,24.602 133.879667,24.511 133.507,24.433 C133.134333,24.355 132.805,24.264 132.519,24.16 C132.233,24.056 132.007667,23.926 131.843,23.77 C131.678333,23.614 131.596,23.4146667 131.596,23.172 C131.596,23.068 131.622,22.951 131.674,22.821 C131.726,22.691 131.825667,22.5696667 131.973,22.457 C132.120333,22.3443333 132.315333,22.249 132.558,22.171 C132.800667,22.093 133.112667,22.054 133.494,22.054 C134.152667,22.054 134.82,22.171 135.496,22.405 C136.172,22.639 136.822,22.99 137.446,23.458 L137.446,23.458 L138.772,20.754 C138.390667,20.5113333 138.005,20.2946667 137.615,20.104 C137.225,19.9133333 136.809,19.7486667 136.367,19.61 C135.925,19.4713333 135.448333,19.363 134.937,19.285 C134.425667,19.207 133.849333,19.168 133.208,19.168 C132.358667,19.168 131.609,19.2806667 130.959,19.506 C130.309,19.7313333 129.763,20.0346667 129.321,20.416 C128.879,20.7973333 128.545333,21.248 128.32,21.768 C128.094667,22.288 127.982,22.8426667 127.982,23.432 C127.982,24.212 128.146667,24.849 128.476,25.343 C128.805333,25.837 129.208333,26.2313333 129.685,26.526 C130.161667,26.8206667 130.66,27.0373333 131.18,27.176 C131.7,27.3146667 132.150667,27.4273333 132.532,27.514 C132.896,27.6006667 133.247,27.6873333 133.585,27.774 C133.923,27.8606667 134.217667,27.9646667 134.469,28.086 C134.720333,28.2073333 134.924,28.3503333 135.08,28.515 C135.236,28.6796667 135.314,28.8746667 135.314,29.1 C135.314,29.4466667 135.166667,29.7413333 134.872,29.984 C134.577333,30.2266667 134.126667,30.348 133.52,30.348 C132.861333,30.348 132.111667,30.244 131.271,30.036 C130.430333,29.828 129.611333,29.5073333 128.814,29.074 L128.814,29.074 L127.826,31.986 C128.744667,32.4366667 129.685,32.766 130.647,32.974 C131.609,33.182 132.592667,33.286 133.598,33.286 Z" id="olicons" fill="#202327" fill-rule="nonzero"></path>
                <rect id="矩形" fill="#FF3C5A" x="144" y="19" width="30" height="14" rx="3"></rect>
                <path d="M150.6075,29.054 L152.7225,24.347 L151.2645,24.347 L150.0225,27.308 L148.7895,24.347 L147.3315,24.347 L149.4465,29.054 L150.6075,29.054 Z M156.7095,29 L156.7095,27.875 L155.5665,27.875 L155.5665,22.664 L154.8105,22.664 L153.0825,23.402 L153.0825,24.5 L154.3065,23.978 L154.3065,27.875 L153.0825,27.875 L153.0825,29 L156.7095,29 Z M158.0595,29.081 C158.2635,29.081 158.4405,29.006 158.5905,28.856 C158.7405,28.706 158.8155,28.529 158.8155,28.325 C158.8155,28.121 158.7405,27.944 158.5905,27.794 C158.4405,27.644 158.2635,27.569 158.0595,27.569 C157.8555,27.569 157.6785,27.644 157.5285,27.794 C157.3785,27.944 157.3035,28.121 157.3035,28.325 C157.3035,28.529 157.3785,28.706 157.5285,28.856 C157.6785,29.006 157.8555,29.081 158.0595,29.081 Z M161.6955,29.108 C162.1215,29.108 162.48,29.0195 162.771,28.8425 C163.062,28.6655 163.2975,28.427 163.4775,28.127 C163.6575,27.827 163.7865,27.4805 163.8645,27.0875 C163.9425,26.6945 163.9815,26.282 163.9815,25.85 C163.9815,25.418 163.9425,25.0055 163.8645,24.6125 C163.7865,24.2195 163.6575,23.873 163.4775,23.573 C163.2975,23.273 163.062,23.0345 162.771,22.8575 C162.48,22.6805 162.1215,22.592 161.6955,22.592 C161.2695,22.592 160.911,22.6805 160.62,22.8575 C160.329,23.0345 160.0935,23.273 159.9135,23.573 C159.7335,23.873 159.6045,24.2195 159.5265,24.6125 C159.4485,25.0055 159.4095,25.418 159.4095,25.85 C159.4095,26.282 159.4485,26.6945 159.5265,27.0875 C159.6045,27.4805 159.7335,27.827 159.9135,28.127 C160.0935,28.427 160.329,28.6655 160.62,28.8425 C160.911,29.0195 161.2695,29.108 161.6955,29.108 Z M161.6955,28.01 C161.4735,28.01 161.295,27.947 161.16,27.821 C161.025,27.695 160.9215,27.53 160.8495,27.326 C160.7775,27.122 160.7295,26.891 160.7055,26.633 C160.6815,26.375 160.6695,26.114 160.6695,25.85 C160.6695,25.586 160.6815,25.3205 160.7055,25.0535 C160.7295,24.7865 160.7775,24.5465 160.8495,24.3335 C160.9215,24.1205 161.025,23.9465 161.16,23.8115 C161.295,23.6765 161.4735,23.609 161.6955,23.609 C161.9175,23.609 162.096,23.6765 162.231,23.8115 C162.366,23.9465 162.4695,24.1205 162.5415,24.3335 C162.6135,24.5465 162.6615,24.7865 162.6855,25.0535 C162.7095,25.3205 162.7215,25.586 162.7215,25.85 C162.7215,26.114 162.7095,26.375 162.6855,26.633 C162.6615,26.891 162.6135,27.122 162.5415,27.326 C162.4695,27.53 162.366,27.695 162.231,27.821 C162.096,27.947 161.9175,28.01 161.6955,28.01 Z M165.3315,29.081 C165.5355,29.081 165.7125,29.006 165.8625,28.856 C166.0125,28.706 166.0875,28.529 166.0875,28.325 C166.0875,28.121 166.0125,27.944 165.8625,27.794 C165.7125,27.644 165.5355,27.569 165.3315,27.569 C165.1275,27.569 164.9505,27.644 164.8005,27.794 C164.6505,27.944 164.5755,28.121 164.5755,28.325 C164.5755,28.529 164.6505,28.706 164.8005,28.856 C164.9505,29.006 165.1275,29.081 165.3315,29.081 Z M170.3985,29 L170.3985,27.875 L169.2555,27.875 L169.2555,22.664 L168.4995,22.664 L166.7715,23.402 L166.7715,24.5 L167.9955,23.978 L167.9955,27.875 L166.7715,27.875 L166.7715,29 L170.3985,29 Z" id="v1.0.1" fill="#FFFFFF" fill-rule="nonzero"></path>
                <g transform="translate(8.000000, 8.000000)" fill-rule="nonzero">
                    <circle id="椭圆形" fill="#202327" cx="16" cy="16" r="16"></circle>
                    <path d="M8.8,25 L8.8,25 C8.35,25 8,21.55 8,21.55 C8,21.25 8.35,21.05 8.8,21.05 L8.8,21.05 C9.25,21.05 9.6,21.3 9.6,21.55 C9.55,21.55 9.2,25 8.8,25 Z" id="路径" fill="#FFFFFF"></path>
                    <path d="M23.95,11.75 C25.05,11.15 26,9.6 25.85,8.85 C25.85,8.75 25.75,8.65 25.65,8.6 C25.5,8.55 25.35,8.6 25.25,8.7 C24.05,9.65 22.65,10.3 21.15,10.65 C19.6,11.1 15.45,11.55 14.7,11.7 C12.65,12.1 11,13.5 10.25,15.45 C9.8,16.7 9.9,18.2 9.9,19.45 C9.85,20.35 9.9,21.25 10,22.15 L10,22.2 L10,22.25 L10,22.25 L10,22.3 L10.05,22.35 L10.05,22.35 L10.05,22.35 L10.05,22.35 C10.2,22.45 10.35,22.45 10.5,22.35 L10.5,22.35 C10.55,22.3 10.6,22.3 10.6,22.25 L10.6,22.25 C10.85,21.95 11,21.35 11.25,20.9 C11.85,19.9 12.9,19.9 14.15,20.4 C14.35,20.5 14.6,20.55 14.8,20.6 L14.85,20.6 C15.3,20.75 15.8,20.85 16.25,20.85 L16.25,20.85 C17.9,20.85 19.4,19.8 20,18.25 C20.25,17.7 20.8,15.9 21,15.45 C21.05,15.35 21.1,15.3 21.2,15.25 C21.55,15.15 21.8,15.05 21.9,15.05 C23.2,14.55 24.3,13.6 24.95,12.4 C25.2,11.9 25.4,11.35 25.5,10.75 C25.5,10.7 25.45,10.65 25.4,10.7 C24.9,11.2 24.3,11.55 23.65,11.7 C23.9,11.8 23.9,11.8 23.95,11.75 Z M19.25,17.8 C18.7,19.35 17,20.15 15.45,19.65 C14.25,19.25 13.45,18.2 13.45,16.95 C13.45,16.9 13.5,16.85 13.5,16.85 C13.85,16.7 14.2,16.6 14.55,16.5 C14.6,16.5 14.65,16.5 14.65,16.55 L14.65,16.55 C14.55,17.55 15.2,18.4 16.2,18.55 C16.25,18.55 16.25,18.55 16.3,18.55 C16.35,18.55 16.35,18.55 16.4,18.5 C16.45,18.45 16.4,18.45 16.35,18.4 C15.95,18.05 15.95,17.45 16.3,17.1 C16.65,16.75 17.25,16.7 17.6,17.05 C17.75,17.2 17.85,17.4 17.9,17.65 C17.9,17.7 17.9,17.7 17.95,17.7 C18,17.7 18,17.7 18,17.65 C18.05,17.55 18.1,17.45 18.15,17.35 C18.3,16.9 18.3,16.4 18.05,15.95 C18.05,15.9 18.05,15.85 18.1,15.85 L18.1,15.85 C18.5,15.8 18.85,15.75 19.15,15.65 C19.2,15.65 19.25,15.65 19.25,15.7 C19.5,16.45 19.5,17.15 19.25,17.8 Z M27,13.55 C27,13.75 26.85,13.85 26.65,13.85 C26.45,13.85 26.35,13.7 26.35,13.55 C26.35,13.35 26.5,13.25 26.65,13.25 C26.8,13.25 27,13.4 27,13.55 L27,13.55 Z" id="形状" fill="#FFFFFF"></path>
                </g>
            </g>
        </g>
    </g>
</svg>
